X:1
T:GRANDE VALSE BRILLANTE
T:à Mademoiselle A. d'Eichtal Grande Valse brillante
T:Frédéric Chopin Op. 34, No 3.
T:Public Domain
T:Public Domain
T:Public Domain
T:Public Domain
C:Frédéric Chopin
Z:Public Domain
%%score { 1 | ( 2 3 ) }
L:1/8
Q:1/4=272
M:3/4
K:F
V:1 treble nm="Piano"
V:2 bass 
V:3 bass 
V:1
!f!"^Vivace" !>![CGc]6 | !>![CGc]6 | !>![CGc]3 C !>!C2 | !>![CGc]6 | [CGc]3 C C2 | %5
"_cresc. -          -         -         -          -          -" [CGc]3 C C2 | [CGc]3 C C2 | %7
 [CGc]3 C C2 | (c_d!p!=BcdB | %9
"_cresc.  -          -         -         -          -          -         -         -          -          -         -         -          -" c_d=Bcdc | %10
 ^c=d^BcdB | ^cd^Bcdc | d_e^cded | _e_fdefe | %14
"_-          -         -         -          -          -         -         -" =e=f^defe | %15
 f_gf^f=g^g | a=g=fced | cAagfd | edcAag | fdedcA) | (edcGed | cAedcG | PFEFAce | fac'e'f'c' | %24
!8va(! a'g'f'c'e'd' | c'aa'g'f'd' | e'd'c'aa'g' | f'd'e'd'c'a) | (e'd'c'ge'd' | c'ae'd'c'g | %30
 Pfefac'f' | f''2)!8va)! z2 c2 | (agfced | cAagfd | edcAag | fdedcA) | (edcGed | cAedcG | PFEFAce | %39
 fac'e'f'c' |!8va(! a'g'f'c'e'd' | c'aa'g'f'd' | e'd'c'aa'g' | f'd'e'd'c'a) | (e'd'c'ge'd' | %45
 c'ae'd'c'g | Pfefac'f' | f''2)!8va)! z2!f! (f2- | f4 _e2) | z2 (P_edef | _e4 d2) | z2 (Pc=BcG | %52
 _B2 F2) z2 | z2 (FGAB | =Bcdcgf | ^cd_ed=c'_b | f4 _e2) | z2 (P_edef | !>!_e4 d2) | z2 (Pd^cd_A | %60
 =c2 G2) z2 | z2!<(! (FG=AB | =Bcdcgf | .[_B_b]2)!<)! (d_efg | f4 _e2) | z2 (P_edef | _e4 d2) | %67
 z2 (Pc=BcG | _B2 F2) z2 | z2 (FGAB | =Bcdcgf | ^cd_ed=c'_b | f4 _e2) | z2 (P_edef | !>!_e4 d2) | %75
 z2 (Pd^cd_A | =c2 G2) z2 | z2!<(! (FG=AB | =Bcdcgf!<)! | .[_B_b]2) z2 z2 |!f! (_e6 | F6) | %82
!p!{/D} .F2{/F} .B2{/B} .d2 |{/d} .f2{/f} .b2{/b} .g2 |!f! (_e6 | F6) |!p!{/c'} b2{/b} g2{/g} f2 | %87
{/f} d2{/d} B2{/B} G2 |!f! (_e6 | F6) |!p!{/D} .F2{/F} .B2{/B} .d2 |{/d} .f2{/f} .b2{/b} .g2 | %92
!>(!({d=e)} !trill(!Te6({de}!>)! | f2) (AB c2) |!>(! !trill(!Te6({de}!>)! | f2) (eg f2) | %96
!f! ([_e_e']6 | [Ff]4) z2 |!p!{/d} .f2{/f} .b2{/b} .d'2 | %99
!8va(!{/d'} .f'2{/f'} .b'2{/b'} .g'2!8va)! |!f! ([_e_e']6 | [Ff]4) z2 | %102
!p!!8va(!{/c''} b'2{/b'} g'2{/g'} f'2 |{/f'} d'2{/d'} b2{/b} g2!8va)! |!f! ([_e_e']6 | [Ff]4) z2 | %106
!p!{/D} .F2{/F} .B2{/B} .d2 |{/d} .f2{/f} .b2{/b} .g2 |!>(!({d=e)} !trill(!Te6({de}!>)! | %109
 f2) (AB c2) |!>(! !trill(!Te6({^de}!>)! | f2) (eg f2) |!p! (_g6 | _A6) | %114
{/F} ._A2{/A} ._d2{/d} .f2 |{/f} ._a2{/a} ._d'2{/d'} .b2 | (_g6 | _A6) | %118
{/_e'} _d'2{/d'} b2{/b} _a2 |{/_a} f2{/f} _d2{/d} __B2 | (_g6 | _A6) |{/F} ._A2{/A} ._d2{/d} .f2 | %123
{/f} ._a2{/a} ._d'2{/d'} .c'2 | !trill(!T=b6({^ab)} | c'2 (ef g2) | !trill(!T=b6 | !trill)!_b6 | %128
!>(! (agf!>)!ced | cAagfd | edcAag | fdedcA) | (edcGed | cAedcG | PFEFAce | fac'e'f'c' | %136
!8va(! a'g'f'c'e'd' | c'aa'g'f'd' | e'd'c'aa'g' | f'd'e'd'c'a | e'd'c'ge'd'!8va)! | c'ae'd'c'g | %142
 fa_a^fag | =fg_gef^f) | (!>!=g6- | gf_eAdc | B2) z2 z2 | z6 | (!>!d6- | dcBEAG) | (FA_A^FAG | %151
 EG_GE=F^F) | (!>!=G6- | GF_EA,DC |"^perdendosi.     -                  -" =B,6-) | B,6 | z6 | %157
 z2 (_DC[I:staff +1]B,=E,) |[I:staff -1] z6 | z6 |!ff! (!>!f6 | !>!C6) | C2{/C} .F2{/F} .A2 | %163
{/A} .c2{/c} .f2{/f} .^g2 | (!>!a6 | !>!C6) |{/F} .A2{/A} .c2{/c} .f2 | %167
{/f} .a2{/a} .c'2{/c'} .f'2 |!8va(! f''2 z2!8va)! z2 | [Acfa]2 z2 z2 | [A,F]2 z2 z2 | %171
 [fc'f']2 z2 z2 | !fermata![F,F]6 |] %173
V:2
 [C,G,B,E]6 | [C,G,B,E]6 | [C,G,B,E]2 z2 z2 | [C,G,B,E]6 | [C,G,B,E]2 z2 z2 | [C,G,B,E]2 z2 z2 | %6
 [C,G,B,E]2 z2 z2 | [C,G,B,E]2 z2 z2 | [C,G,B,E]2 z2 z2 | z6 | z6 | z6 | z6 | z6 | z6 | z6 | %16
 z2 [A,CF]2 [B,DF]2 | z2 [A,CF]2 [B,DF]2 | z2 [A,CF]2 [B,DF]2 | z2 [A,CF]2 [A,CF]2 | %20
 C,2 [B,CE]2 [B,CE]2 | C,2 [B,CE]2 [B,CE]2 |!ped! F,,2 [A,C]2 [A,C]2!ped-up! | %23
!ped! F,2[K:treble] [CA]2 [CA]2!ped-up! |!ped! F,2 ([CA]2 [DB]2)!ped-up! | %25
!ped! F,2 ([CA]2 [DB]2)!ped-up! |!ped! F,2 ([CA]2 [DB]2)!ped-up! | %27
!ped! F,2 ([CA]2 [A,F]2)!ped-up! |[K:bass]!ped! C,2 [B,CE]2 [B,CE]2!ped-up! | %29
!ped! C,2[K:treble] [B,CA]2 [B,CG]2!ped-up! |[K:bass]!ped! (F,2 [A,F]2 [A,F]2 | %31
 F,,2) z2!ped-up! z2 | z2 [A,CF]2 [B,DF]2 | z2 [A,CF]2 [B,DF]2 | z2 [A,CF]2 [B,DF]2 | %35
 z2 [A,CF]2 [A,CF]2 | C,2 [B,CE]2 [B,CE]2 | C,2 [B,CE]2 [B,CE]2 |!ped! F,,2 [A,C]2 [A,C]2!ped-up! | %39
!ped! F,2[K:treble] [CA]2 [CA]2!ped-up! |!ped! F,2 ([CA]2 [DB]2)!ped-up! | %41
!ped! F,2 ([CA]2 [DB]2)!ped-up! |!ped! F,2 ([CA]2 [DB]2)!ped-up! | %43
!ped! F,2 ([CA]2 [A,F]2)!ped-up! |[K:bass]!ped! C,2 [B,CE]2 [B,CE]2!ped-up! | %45
!ped! C,2[K:treble] [B,CA]2 [B,CG]2!ped-up! |[K:bass]!ped! (F,2 [A,F]2 [A,F]2 | %47
 F,,2) z2!ped-up! z2 | G,,2 [_E,B,_E]2 [E,B,E]2 | A,,2 [F,C_E]2 [F,CE]2 | B,,2 [F,B,D]2 [F,B,D]2 | %51
 _E,,2 [_E,G,C]2 [E,G,C]2 | F,,2 [F,D]2 [F,D]2 | F,,2 [F,B,D]2 [F,B,D]2 | F,,2 [F,A,_E]2 [F,A,E]2 | %55
 B,,2 [F,B,D]2 [F,B,D]2 | G,,2 [_E,B,_E]2 [E,B,E]2 | A,,2 [F,C_E]2 [F,CE]2 | %58
 ^F,,2 [^F,A,D]2 [F,A,D]2 | =F,,2 [=F,_A,=B,D]2 [F,A,B,D]2 | _E,,2 [_E,G,C]2 [E,G,C]2 | %61
 F,,2 [F,B,D]2 [F,B,D]2 | F,,2 [F,A,_E]2 [F,A,E]2 | B,,2 [F,B,D]2 z2 | G,,2 [_E,B,_E]2 [E,B,E]2 | %65
 A,,2 [F,C_E]2 [F,CE]2 | B,,2 [F,B,D]2 [F,B,D]2 | _E,,2 [_E,G,C]2 [E,G,C]2 | F,,2 [F,D]2 [F,D]2 | %69
 F,,2 [F,B,D]2 [F,B,D]2 | F,,2 [F,A,_E]2 [F,A,E]2 | B,,2 [F,B,D]2 [F,B,D]2 | %72
 G,,2 [_E,B,_E]2 [E,B,E]2 | A,,2 [F,C_E]2 [F,CE]2 | ^F,,2 [^F,A,D]2 [F,A,D]2 | %75
 =F,,2 [=F,_A,=B,D]2 [F,A,B,D]2 | _E,,2 [_E,G,C]2 [E,G,C]2 | F,,2 [F,B,D]2 [F,B,D]2 | %78
 F,,2 [F,A,_E]2 [F,A,E]2 | B,,2 [F,B,D]2 z2 |!ped! F,,2 [_G,B,_E]2 [G,B,E]2!ped-up! | %81
!ped! F,,2 [F,A,_E]2 [F,A,E]2!ped-up! |!ped! B,,2 [F,B,D]2 [F,B,D]2 | %83
 [F,B,D]2 [F,B,D]2 [F,B,D]2!ped-up! |!ped! F,,2 [_G,B,_E]2 [G,B,E]2!ped-up! | %85
!ped! F,,2 [F,A,_E]2 [F,A,E]2!ped-up! |!ped! B,,2 [F,B,D]2 [F,B,D]2 | %87
 [F,B,D]2 [F,B,D]2 [F,B,D]2!ped-up! |!ped! F,,2 [_G,B,_E]2 [G,B,E]2!ped-up! | %89
!ped! F,,2 [F,A,_E]2 [F,A,E]2!ped-up! |!ped! B,,2 [F,B,D]2 [F,B,D]2 | %91
 [F,G,B,D]2 [F,G,B,D]4!ped-up! | C,2[K:treble] ([B,CA]2 [B,CG]2) |[K:bass] z2 [A,=E]2 [A,D]2 | %94
 C,2[K:treble] ([B,CA]2 [B,CG]2) |[K:bass] z2 [A,CG]2 [A,CF]2 | %96
!ped! F,,2 [_G,B,_E]2 [G,B,E]2!ped-up! |!ped! F,,2 [F,A,_E]2 [F,A,E]2!ped-up! | %98
!ped! B,,2 [F,B,D]2 [F,B,D]2 | [F,B,D]2 [F,B,D]2 [F,B,D]2!ped-up! | %100
!ped! F,,2 [_G,B,_E]2 [G,B,E]2!ped-up! |!ped! F,,2 [F,A,_E]2 [F,A,E]2!ped-up! | %102
!ped! B,,2 [F,B,D]2 [F,B,D]2 | [F,B,D]2 [F,B,D]2 [F,B,D]2!ped-up! | %104
!ped! F,,2 [_G,B,_E]2 [G,B,E]2!ped-up! |!ped! F,,2 [F,A,_E]2 [F,A,E]2!ped-up! | %106
!ped! B,,2 [F,B,D]2 [F,B,D]2 | [F,G,B,D]2 [F,G,B,D]4!ped-up! | C,2[K:treble] ([B,CA]2 [B,CG]2) | %109
[K:bass] z2 [A,=E]2 [A,D]2 | C,2[K:treble] ([B,CA]2 [B,CG]2) |[K:bass] z2 [A,CG]2 [A,CF]2 | %112
!ped! _A,,2 [_A,C_G]2 [A,CG]2 | [_A,C_G]2 [A,CG]2 [A,CG]2!ped-up! |!ped! _D,2 [_A,_DF]2 [A,DF]2 | %115
 [_A,_DF]2 [A,DF]2 [A,DF]2!ped-up! |!ped! _A,,2 [_A,C_G]2 [A,CG]2 | %117
 [_A,C_G]2 [A,CG]2 [A,CG]2!ped-up! |!ped! _D,2 [_A,_DF]2 [A,DF]2 | %119
 [_A,_DF]2 [A,DF]2 [A,DF]2!ped-up! |!ped! _A,,2 [_A,C_G]2 [A,CG]2 | %121
 [_A,C_G]2 [A,CG]2 [A,CG]2!ped-up! |!ped! _D,2 [_A,_DF]2 [A,DF]2 | [_A,F]2 [A,F]2 [A,F]2!ped-up! | %124
!ped! _D,2 [G,F]2 [G,F]2!ped-up! |!ped! C,2 [G,CE]2 [G,CE]2!ped-up! | %126
!ped! C,2 [G,DF]2 [G,DF]2!ped-up! |!ped! C,2 [G,_B,CE]2 [G,B,CE]2!ped-up! | z2 [A,CF]2 [B,DF]2 | %129
 z2 [A,CF]2 [B,DF]2 | z2 [A,CF]2 [B,DF]2 | z2 [A,CF]2 [A,CF]2 | C,2 [B,CE]2 [B,CE]2 | %133
 C,2 [B,CE]2 [B,CE]2 |!ped! F,,2 [A,C]2 [A,C]2!ped-up! |!ped! F,2[K:treble] [CA]2 [CA]2!ped-up! | %136
!ped! F,2 ([CA]2 [DB]2)!ped-up! |!ped! F,2 ([CA]2 [DB]2)!ped-up! |!ped! F,2 ([CA]2 [DB]2)!ped-up! | %139
!ped! F,2 ([CA]2 [A,F]2)!ped-up! |[K:bass]!ped! C,2 [B,CE]2 [B,CE]2!ped-up! | %141
!ped! C,2[K:treble] [B,CA]2 [B,CG]2!ped-up! |[K:bass] [F,A,F]2 z2 z2 | z6 | %144
!ped! F,,2 [F,A,_E]2 [F,A,E]2 | [F,A,_E]2 [F,E]2 [F,E]2!ped-up! |!ped! F,,2 ([F,B,D]2 [=E,B,D]2 | %147
 [G,B,D]2 [F,B,D]2 [D,F]2)!ped-up! |!ped! F,,2 [C,E,B,]2 [C,E,B,]2 | %149
 [C,E,B,]2 [C,B,]2 [C,B,]2!ped-up! | F,,2 [C,=A,]2 [=B,,A,]2 | [D,A,]2 [C,A,]2 [A,,A,]2 | %152
!ped! F,,2 [_E,C]2 [E,C]2 | [_E,C]2 [E,C]2 [E,C]2!ped-up! |!ped! F,,2 [D,_A,]2 [D,A,]2!ped-up! | %155
!ped! [_D,_A,]2 [D,A,]2 [D,A,]2!ped-up! |!ped! F,,2 [_D,G,]2 [D,G,]2!ped-up! | z6 | z6 | z6 | %160
!ped! [F,,,F,,]2 [C,F,A,]2 [C,F,A,]2 | [C,F,A,]2 [C,F,A,]2 [C,F,A,]2 | %162
 [C,F,A,]2 [C,F,A,]2 [C,F,A,]2 | [C,F,A,C]2 [C,F,A,C]2 [C,F,A,C]2!ped-up! | %164
!ped! [F,,,F,,]2 [C,F,A,]2 [C,F,A,]2 | [C,F,A,]2 [C,F,A,]2 [C,F,A,]2 | %166
 [C,F,A,C]2 [C,F,A,C]2 [C,F,A,C]2 | [C,F,A,C]2 [C,F,A,C]2 [C,F,A,C]2 | F,,,2 z2 z2 | %169
 [F,CF]2 z2 z2 | [F,,C,]2 z2 z2 | [A,CFA]2 z2 z2 | !fermata![F,,,F,,]6!ped-up! |] %173
V:3
 x6 | x6 | x6 | x6 | x6 | x6 | x6 | x6 | x6 | x6 | x6 | x6 | x6 | x6 | x6 | x6 | F,6 | F,6 | F,6 | %19
 F,6 | x6 | x6 | x6 | x2[K:treble] x4 | x6 | x6 | x6 | x6 |[K:bass] x6 | x2[K:treble] x4 | %30
[K:bass] x6 | x6 | F,6 | F,6 | F,6 | F,6 | x6 | x6 | x6 | x2[K:treble] x4 | x6 | x6 | x6 | x6 | %44
[K:bass] x6 | x2[K:treble] x4 |[K:bass] x6 | x6 | x6 | x6 | x6 | x6 | x6 | x6 | x6 | x6 | x6 | x6 | %58
 x6 | x6 | x6 | x6 | x6 | x6 | x6 | x6 | x6 | x6 | x6 | x6 | x6 | x6 | x6 | x6 | x6 | x6 | x6 | %77
 x6 | x6 | x6 | x6 | x6 | x6 | x6 | x6 | x6 | x6 | x6 | x6 | x6 | x6 | x2 z2 D,2 | %92
 x2[K:treble] x4 |[K:bass] F,6 | x2[K:treble] x4 |[K:bass] F,6 | x6 | x6 | x6 | x6 | x6 | x6 | x6 | %103
 x6 | x6 | x6 | x6 | x2 z2 D,2 | x2[K:treble] x4 |[K:bass] F,6 | x2[K:treble] x4 |[K:bass] F,6 | %112
 x6 | x6 | x6 | x6 | x6 | x6 | x6 | x6 | x6 | x6 | x6 | x6 | x6 | x6 | x6 | x6 | F,6 | F,6 | F,6 | %131
 F,6 | x6 | x6 | x6 | x2[K:treble] x4 | x6 | x6 | x6 | x6 |[K:bass] x6 | x2[K:treble] x4 | %142
[K:bass] x6 | x6 | x6 | x6 | x6 | x6 | x6 | x6 | x6 | x6 | x6 | x6 | x6 | x6 | x6 | x6 | x6 | x6 | %160
 x6 | x6 | x6 | x6 | x6 | x6 | x6 | x6 | x6 | x6 | x6 | x6 | x6 |] %173

